symbols/web/mic_external_off/materialsymbolsoutlined/mic_external_off_wght200grad200fill1_24px.svg

<svg xmlns="http://www.w3.org/2000/svg" height="24" width="24"><path d="m9.1 6.55-3.7-3.7q.325-.2.662-.35.338-.15.713-.15 1.175 0 2.012.85.838.85.838 2 0 .375-.15.725T9.1 6.55Zm10.45 10.425-1.65-1.65v-9.15q0-.9-.625-1.538Q16.65 4 15.75 4q-.925 0-1.55.637-.625.638-.625 1.538V11l-1.65-1.65V6.175q0-1.55 1.113-2.688Q14.15 2.35 15.75 2.35q1.575 0 2.688 1.137 1.112 1.138 1.112 2.688Zm.825 5.975-6.8-6.8v1.675q0 1.6-1.112 2.713-1.113 1.112-2.688 1.112-1.6 0-2.7-1.112-1.1-1.113-1.1-2.713H5.05l-1-9.675H5.6L.825 3.4 2 2.225l19.55 19.55ZM9.775 20q.9 0 1.525-.637.625-.638.625-1.538V14.5l-2.75-2.75-.65 6.075h-.9q0 .9.625 1.538.625.637 1.525.637Z"/></svg>

<svg xmlns="http://www.w3.org/2000/svg" height="24" width="24"><path d="M9.1 6.55 5.4 2.85Q5.725 2.65 6.062 2.5Q6.4 2.35 6.775 2.35Q7.95 2.35 8.787 3.2Q9.625 4.05 9.625 5.2Q9.625 5.575 9.475 5.925Q9.325 6.275 9.1 6.55ZM19.55 16.975 17.9 15.325V6.175Q17.9 5.275 17.275 4.637Q16.65 4 15.75 4Q14.825 4 14.2 4.637Q13.575 5.275 13.575 6.175V11L11.925 9.35V6.175Q11.925 4.625 13.038 3.487Q14.15 2.35 15.75 2.35Q17.325 2.35 18.438 3.487Q19.55 4.625 19.55 6.175ZM20.375 22.95 13.575 16.15V17.825Q13.575 19.425 12.463 20.538Q11.35 21.65 9.775 21.65Q8.175 21.65 7.075 20.538Q5.975 19.425 5.975 17.825H5.05L4.05 8.15H5.6L0.825 3.4L2 2.225L21.55 21.775ZM9.775 20Q10.675 20 11.3 19.363Q11.925 18.725 11.925 17.825V14.5L9.175 11.75L8.525 17.825H7.625Q7.625 18.725 8.25 19.363Q8.875 20 9.775 20Z"/></svg>
